X:1
T:Sally Ann (#16)
C:Traditional
S:Approximated from Mark O'Connor version by S.C.
S:Arrangement; Steve Smith
M:4/4
L:1/8
K:D
|"D"dddA "G"B3/2B/2 B2|"D"AFEF "A"A2 A2
|"D"dddA "G"B3/2B/2 B2|"D"AF"A"EF "D"D2 D2
|"D"FEDD "A"E3/2E/2 E2|"A"FEDE "D"D2 D2
|"D"FEDD "A"E3/2E/2 E2|"A"FAFE "D"D4||



